icons/leg.svg

<svg width="48" height="48" viewBox="0 0 48 48" fill="none" xmlns="http://www.w3.org/2000/svg">
<path fill-rule="evenodd" clip-rule="evenodd" d="M20.5246 4.77974C20.6275 4.3238 21.0326 4 21.5 4H34C34.2883 4 34.5625 4.12439 34.7524 4.34128C34.9423 4.55816 35.0293 4.84643 34.9912 5.13216C34.4583 9.12906 32.0905 13.2928 29.9466 16.3826C28.8629 17.9444 27.8122 19.2656 27.0322 20.1968C26.7244 20.5643 26.4581 20.8718 26.248 21.11L27.0271 22.3565C27.9948 23.9049 28.4687 25.7111 28.3858 27.5352L28.0169 35.6498L29.5529 37.4418C30.5409 38.5944 30.7775 40.2127 30.161 41.6001C29.25 43.6497 26.8124 44.5242 24.8062 43.5211L24.7452 43.4906C24.1647 43.2004 23.5058 43.1062 22.8673 43.2223L18.8563 43.9516C18.6792 43.9838 18.4996 44 18.3197 44H15C13.3431 44 12 42.6568 12 41V40C12 39.4477 12.4477 39 13 39H15.8143L21.2388 36.9136L17.3851 25.7807C17.1302 25.0442 17 24.2703 17 23.4909V21.169C17 20.6503 17.0577 20.1331 17.1719 19.6272L20.5246 4.77974ZM24.2722 20.3142L24.2756 20.3106L24.2907 20.2944C24.3044 20.2796 24.3255 20.2568 24.3535 20.2264C24.4094 20.1655 24.4927 20.0739 24.5999 19.9539C24.8143 19.7139 25.1237 19.3606 25.499 18.9126C26.2503 18.0156 27.2621 16.7431 28.3034 15.2424C30.1846 12.5313 32.0866 9.18105 32.8043 6H22.2994L19.1228 20.0677C19.0412 20.4291 19 20.7985 19 21.169V23.4909C19 24.0476 19.093 24.6004 19.2751 25.1264L23.445 37.1729C23.6213 37.6823 23.3621 38.2398 22.859 38.4333L16.359 40.9333C16.2444 40.9774 16.1227 41 16 41H14C14 41.5523 14.4477 42 15 42H18.3197C18.3797 42 18.4395 41.9946 18.4985 41.9839L22.5095 41.2546C23.5738 41.0611 24.6721 41.218 25.6396 41.7018L25.7007 41.7323C26.687 42.2255 27.8855 41.7955 28.3333 40.7878C28.6365 40.1057 28.5201 39.3101 28.0344 38.7433L26.2407 36.6508C26.0752 36.4576 25.9895 36.2087 26.001 35.9546L26.3879 27.4443C26.4523 26.0256 26.0838 24.6208 25.3311 23.4165L24.152 21.53C23.9112 21.1448 23.961 20.645 24.2722 20.3142C24.2723 20.3141 24.2722 20.3142 24.2722 20.3142Z" fill="black"/>
</svg>

<svg
  xmlns="http://www.w3.org/2000/svg"
  width="24"
  height="24"
  viewBox="0 0 24 24"
  fill="none"
  stroke="currentColor"
  stroke-width="2"
  stroke-linecap="round"
  stroke-linejoin="round"
>
  <path
    fill-rule="evenodd"
    d="M20.525 4.78A1 1 0 0 1 21.5 4H34a1 1 0 0 1 .991 1.132c-.533 3.997-2.9 8.16-5.044 11.25a54 54 0 0 1-3.699 4.728l.78 1.247a9 9 0 0 1 1.358 5.178l-.37 8.115 1.537 1.792a3.934 3.934 0 0 1-4.747 6.08l-.06-.031a3 3 0 0 0-1.879-.269l-4.01.73a3 3 0 0 1-.537.048H15a3 3 0 0 1-3-3v-1a1 1 0 0 1 1-1h2.814l5.425-2.086-3.854-11.133A7 7 0 0 1 17 23.49v-2.322c0-.519.058-1.036.172-1.542zm3.747 15.534.004-.003.015-.017.309-.34c.214-.24.524-.593.899-1.041a52 52 0 0 0 2.804-3.67C30.185 12.53 32.087 9.18 32.804 6H22.3l-3.176 14.068A5 5 0 0 0 19 21.169v2.322a5 5 0 0 0 .275 1.635l4.17 12.047a1 1 0 0 1-.586 1.26l-6.5 2.5A1 1 0 0 1 16 41h-2a1 1 0 0 0 1 1h3.32q.09 0 .178-.016l4.011-.73a5 5 0 0 1 3.13.448l.062.03a1.934 1.934 0 0 0 2.333-2.989l-1.793-2.092a1 1 0 0 1-.24-.696l.387-8.51a7 7 0 0 0-1.057-4.029l-1.179-1.886a1 1 0 0 1 .12-1.216"
    clip-rule="evenodd"
  />
</svg>
